projector-screen-outline.svg

<svg fill="currentColor" viewBox="0 0 24 24"><path d="M20 2H4c-.55 0-1 .45-1 1v1c0 .55.45 1 1 1h1v9h6v2.59l-4.21 4.2 1.42 1.42 2.79-2.8V22h2v-2.59l2.79 2.8 1.42-1.42-4.21-4.2V14h6V5h1c.55 0 1-.45 1-1V3c0-.55-.45-1-1-1m-3 10H7V5h10z"/></svg>

<svg  viewBox="0 0 24 24" fill="currentColor"><path  d="M20 2H4C3.45 2 3 2.45 3 3V4C3 4.55 3.45 5 4 5H5V14H11V16.59L6.79 20.79L8.21 22.21L11 19.41V22H13V19.41L15.79 22.21L17.21 20.79L13 16.59V14H19V5H20C20.55 5 21 4.55 21 4V3C21 2.45 20.55 2 20 2M17 12H7V5H17V12Z"/></svg>
